personal/terrible.svg

<svg width="79" height="21" viewBox="0 0 79 21" fill="none" xmlns="http://www.w3.org/2000/svg">
<g clip-path="url(#clip0_2013_84)">
<rect width="79" height="21" rx="5" fill="black"/>
<g filter="url(#filter0_d_2013_84)">
<g clip-path="url(#clip1_2013_84)">
<path d="M9.10529 6.43311L5.00272 10.132H5V12.5684C5 13.6697 6.08034 14.5669 7.40684 14.5669H9.93675C11.2632 14.5669 12.3436 13.6697 12.3436 12.5684V10.9674H13.6564V12.5684C13.6564 13.5276 14.4761 14.3314 15.5639 14.523L15.7499 14.3069L16.8109 13.0734L14.8842 11.6612L16.5422 10.4464L15.9661 10.132H6.26357L9.68237 7.05093L9.10529 6.43311ZM16.8109 7.53885L16.5422 8.18358L19.7392 10.132H17.6554L18.0497 10.3471L16.2562 11.6613L18.0002 12.9395L16.6004 14.5669H18.5932C19.9197 14.5669 21 13.6697 21 12.5684V10.132L16.8109 7.53885Z" fill="white"/>
</g>
</g>
<g filter="url(#filter1_d_2013_84)">
<path d="M23.4062 7.90128V6.04545H31.3974V7.90128H28.5305V15.5H26.2777V7.90128H23.4062ZM34.7997 15.6339C34.058 15.6339 33.4178 15.4877 32.8793 15.1953C32.3437 14.8999 31.9313 14.4798 31.642 13.935C31.3558 13.3872 31.2127 12.7363 31.2127 11.9822C31.2127 11.2498 31.3574 10.6096 31.6467 10.0618C31.936 9.51089 32.3437 9.08309 32.87 8.77841C33.3963 8.47064 34.0164 8.31676 34.7305 8.31676C35.2352 8.31676 35.6968 8.39524 36.1154 8.5522C36.534 8.70916 36.8956 8.94152 37.2003 9.24929C37.505 9.55705 37.7419 9.93714 37.9112 10.3896C38.0805 10.8389 38.1651 11.3544 38.1651 11.9361V12.4993H32.0021V11.1882H36.0646C36.0615 10.9482 36.0046 10.7343 35.8938 10.5465C35.783 10.3588 35.6307 10.2126 35.4368 10.108C35.246 10.0002 35.0259 9.94638 34.7766 9.94638C34.5243 9.94638 34.2981 10.0033 34.098 10.1172C33.898 10.228 33.7395 10.3803 33.6225 10.5742C33.5056 10.765 33.444 10.982 33.4379 11.2251V12.5593C33.4379 12.8486 33.4948 13.1025 33.6087 13.321C33.7225 13.5365 33.8841 13.7042 34.0934 13.8242C34.3027 13.9442 34.552 14.0043 34.8413 14.0043C35.0413 14.0043 35.2229 13.9766 35.386 13.9212C35.5491 13.8658 35.6892 13.7842 35.8061 13.6765C35.9231 13.5688 36.0108 13.4364 36.0692 13.2795L38.142 13.3395C38.0559 13.8042 37.8666 14.2089 37.5742 14.5536C37.2849 14.8952 36.9048 15.1615 36.4339 15.3523C35.9631 15.54 35.4183 15.6339 34.7997 15.6339ZM39.3181 15.5V8.40909H41.5109V9.7017H41.5848C41.714 9.2339 41.9249 8.88612 42.2172 8.65838C42.5096 8.42755 42.8497 8.31214 43.2375 8.31214C43.3421 8.31214 43.4498 8.31984 43.5606 8.33523C43.6714 8.34754 43.7745 8.36754 43.8699 8.39524V10.3572C43.7622 10.3203 43.6206 10.2911 43.4452 10.2695C43.2729 10.248 43.119 10.2372 42.9836 10.2372C42.7158 10.2372 42.4742 10.2972 42.2588 10.4173C42.0464 10.5342 41.8787 10.6989 41.7556 10.9112C41.6356 11.1205 41.5755 11.3667 41.5755 11.6499V15.5H39.3181ZM44.7898 15.5V8.40909H46.9826V9.7017H47.0565C47.1857 9.2339 47.3965 8.88612 47.6889 8.65838C47.9813 8.42755 48.3214 8.31214 48.7092 8.31214C48.8138 8.31214 48.9215 8.31984 49.0323 8.33523C49.1431 8.34754 49.2462 8.36754 49.3416 8.39524V10.3572C49.2339 10.3203 49.0923 10.2911 48.9169 10.2695C48.7445 10.248 48.5907 10.2372 48.4552 10.2372C48.1875 10.2372 47.9459 10.2972 47.7305 10.4173C47.5181 10.5342 47.3504 10.6989 47.2273 10.9112C47.1072 11.1205 47.0472 11.3667 47.0472 11.6499V15.5H44.7898ZM50.2614 15.5V8.40909H52.5189V15.5H50.2614ZM51.3925 7.58274C51.0755 7.58274 50.8031 7.4781 50.5754 7.26882C50.3476 7.05646 50.2337 6.80102 50.2337 6.50248C50.2337 6.20703 50.3476 5.95466 50.5754 5.74538C50.8031 5.53302 51.0755 5.42685 51.3925 5.42685C51.7126 5.42685 51.9849 5.53302 52.2096 5.74538C52.4373 5.95466 52.5512 6.20703 52.5512 6.50248C52.5512 6.80102 52.4373 7.05646 52.2096 7.26882C51.9849 7.4781 51.7126 7.58274 51.3925 7.58274ZM53.9558 15.5V6.04545H56.2132V9.62322H56.2594C56.3517 9.40779 56.4825 9.20005 56.6518 9C56.8241 8.79995 57.0427 8.63684 57.3073 8.51065C57.5751 8.38139 57.8952 8.31676 58.2676 8.31676C58.76 8.31676 59.2201 8.44602 59.6479 8.70454C60.0788 8.96307 60.4265 9.36162 60.6912 9.90021C60.9559 10.4388 61.0882 11.1251 61.0882 11.9592C61.0882 12.7624 60.9605 13.4349 60.7051 13.9766C60.4527 14.5182 60.1111 14.9245 59.6802 15.1953C59.2524 15.4661 58.7769 15.6016 58.2537 15.6016C57.8967 15.6016 57.5874 15.5431 57.3258 15.4261C57.0642 15.3092 56.8442 15.1553 56.6656 14.9645C56.4902 14.7737 56.3548 14.569 56.2594 14.3505H56.1902V15.5H53.9558ZM56.1671 11.9545C56.1671 12.3362 56.2179 12.6686 56.3194 12.9517C56.4241 13.2348 56.5733 13.4549 56.7672 13.6119C56.9642 13.7657 57.1996 13.8427 57.4735 13.8427C57.7505 13.8427 57.986 13.7657 58.1799 13.6119C58.3737 13.4549 58.5199 13.2348 58.6184 12.9517C58.72 12.6686 58.7708 12.3362 58.7708 11.9545C58.7708 11.5729 58.72 11.2421 58.6184 10.962C58.5199 10.6819 58.3737 10.465 58.1799 10.3111C57.989 10.1572 57.7536 10.0803 57.4735 10.0803C57.1965 10.0803 56.9611 10.1557 56.7672 10.3065C56.5733 10.4573 56.4241 10.6727 56.3194 10.9528C56.2179 11.2328 56.1671 11.5668 56.1671 11.9545ZM64.5287 6.04545V15.5H62.2712V6.04545H64.5287ZM69.2802 15.6339C68.5385 15.6339 67.8983 15.4877 67.3597 15.1953C66.8242 14.8999 66.4118 14.4798 66.1225 13.935C65.8363 13.3872 65.6932 12.7363 65.6932 11.9822C65.6932 11.2498 65.8378 10.6096 66.1271 10.0618C66.4164 9.51089 66.8242 9.08309 67.3505 8.77841C67.8768 8.47064 68.4969 8.31676 69.2109 8.31676C69.7157 8.31676 70.1773 8.39524 70.5959 8.5522C71.0144 8.70916 71.3761 8.94152 71.6807 9.24929C71.9854 9.55705 72.2224 9.93714 72.3917 10.3896C72.5609 10.8389 72.6456 11.3544 72.6456 11.9361V12.4993H66.4826V11.1882H70.5451C70.542 10.9482 70.4851 10.7343 70.3743 10.5465C70.2635 10.3588 70.1111 10.2126 69.9172 10.108C69.7264 10.0002 69.5064 9.94638 69.2571 9.94638C69.0047 9.94638 68.7785 10.0033 68.5785 10.1172C68.3784 10.228 68.2199 10.3803 68.103 10.5742C67.986 10.765 67.9245 10.982 67.9183 11.2251V12.5593C67.9183 12.8486 67.9752 13.1025 68.0891 13.321C68.203 13.5365 68.3646 13.7042 68.5738 13.8242C68.7831 13.9442 69.0324 14.0043 69.3217 14.0043C69.5218 14.0043 69.7033 13.9766 69.8665 13.9212C70.0296 13.8658 70.1696 13.7842 70.2866 13.6765C70.4035 13.5688 70.4912 13.4364 70.5497 13.2795L72.6225 13.3395C72.5363 13.8042 72.347 14.2089 72.0547 14.5536C71.7654 14.8952 71.3853 15.1615 70.9144 15.3523C70.4435 15.54 69.8988 15.6339 69.2802 15.6339Z" fill="white"/>
</g>
</g>
<rect x="0.6" y="0.6" width="77.8" height="19.8" rx="4.4" stroke="url(#paint0_linear_2013_84)" stroke-opacity="0.88" stroke-width="1.2"/>
<defs>
<filter id="filter0_d_2013_84" x="-0.600282" y="-3.10028" width="27.2006" height="27.2006" filterUnits="userSpaceOnUse" color-interpolation-filters="sRGB">
<feFlood flood-opacity="0" result="BackgroundImageFix"/>
<feColorMatrix in="SourceAlpha" type="matrix" values="0 0 0 0 0 0 0 0 0 0 0 0 0 0 0 0 0 0 127 0" result="hardAlpha"/>
<feOffset/>
<feGaussianBlur stdDeviation="2.80014"/>
<feComposite in2="hardAlpha" operator="out"/>
<feColorMatrix type="matrix" values="0 0 0 0 0 0 0 0 0 0 0 0 0 0 0 0 0 0 0.25 0"/>
<feBlend mode="normal" in2="BackgroundImageFix" result="effect1_dropShadow_2013_84"/>
<feBlend mode="normal" in="SourceGraphic" in2="effect1_dropShadow_2013_84" result="shape"/>
</filter>
<filter id="filter1_d_2013_84" x="17.2857" y="-3.21429" width="62.4286" height="27.4286" filterUnits="userSpaceOnUse" color-interpolation-filters="sRGB">
<feFlood flood-opacity="0" result="BackgroundImageFix"/>
<feColorMatrix in="SourceAlpha" type="matrix" values="0 0 0 0 0 0 0 0 0 0 0 0 0 0 0 0 0 0 127 0" result="hardAlpha"/>
<feOffset/>
<feGaussianBlur stdDeviation="2.85714"/>
<feComposite in2="hardAlpha" operator="out"/>
<feColorMatrix type="matrix" values="0 0 0 0 0 0 0 0 0 0 0 0 0 0 0 0 0 0 0.25 0"/>
<feBlend mode="normal" in2="BackgroundImageFix" result="effect1_dropShadow_2013_84"/>
<feBlend mode="normal" in="SourceGraphic" in2="effect1_dropShadow_2013_84" result="shape"/>
</filter>
<linearGradient id="paint0_linear_2013_84" x1="0" y1="10.5" x2="79" y2="10.5" gradientUnits="userSpaceOnUse">
<stop stop-color="#6F2C10"/>
<stop offset="1" stop-color="#925B28"/>
</linearGradient>
<clipPath id="clip0_2013_84">
<rect width="79" height="21" rx="5" fill="white"/>
</clipPath>
<clipPath id="clip1_2013_84">
<rect width="16" height="11" fill="white" transform="translate(5 5)"/>
</clipPath>
</defs>
</svg>

<svg xmlns="http://www.w3.org/2000/svg" width="79" height="21" fill="none"><g clip-path="url(#a)"><rect width="79" height="21" fill="#000" rx="5"/><g filter="url(#b)"><g clip-path="url(#c)"><path fill="#fff" d="M9.1 6.43 5 10.13v2.44c0 1.1 1.08 2 2.4 2h2.54c1.32 0 2.4-.9 2.4-2v-1.6h1.32v1.6c0 .96.82 1.76 1.9 1.95l.19-.21 1.06-1.24-1.93-1.4 1.66-1.22-.57-.32h-9.7l3.41-3.08-.57-.62Zm7.71 1.1-.27.65 3.2 1.95h-2.08l.39.22-1.8 1.31L18 12.94l-1.4 1.63h2c1.32 0 2.4-.9 2.4-2v-2.44l-4.19-2.6Z"/></g></g><g filter="url(#d)"><path fill="#fff" d="M23.4 7.9V6.05h8V7.9h-2.87v7.6h-2.25V7.9H23.4Zm11.4 7.73a4 4 0 0 1-1.92-.43c-.54-.3-.95-.72-1.24-1.26a4.16 4.16 0 0 1-.43-1.96c0-.73.15-1.37.44-1.92.29-.55.7-.98 1.22-1.28a4.14 4.14 0 0 1 3.25-.23 2.98 2.98 0 0 1 1.8 1.84c.16.45.25.96.25 1.55v.56H32v-1.31h4.06c0-.24-.06-.46-.17-.64a1.16 1.16 0 0 0-.45-.44c-.2-.11-.41-.16-.66-.16a1.35 1.35 0 0 0-1.16.62c-.11.2-.18.41-.18.66v1.33c0 .29.05.54.17.76.11.22.27.38.48.5.21.12.46.18.75.18.2 0 .38-.02.55-.08.16-.05.3-.14.42-.24a1 1 0 0 0 .26-.4l2.07.06c-.08.46-.27.87-.57 1.21a2.8 2.8 0 0 1-1.14.8 4.4 4.4 0 0 1-1.63.28Zm4.52-.13V8.4h2.2v1.3h.06c.13-.47.34-.81.64-1.04a1.6 1.6 0 0 1 1.02-.35 2.35 2.35 0 0 1 .63.09v1.96a3.77 3.77 0 0 0-.89-.12c-.26 0-.5.06-.72.18a1.3 1.3 0 0 0-.5.5c-.12.2-.18.45-.18.73v3.85h-2.26Zm5.47 0V8.4h2.2v1.3h.07c.13-.47.34-.81.63-1.04.3-.23.63-.35 1.02-.35a2.35 2.35 0 0 1 .63.09v1.96a3.77 3.77 0 0 0-.89-.12c-.26 0-.5.06-.72.18a1.3 1.3 0 0 0-.5.5c-.12.2-.18.45-.18.73v3.85h-2.26Zm5.47 0V8.4h2.26v7.1h-2.26Zm1.13-7.92c-.31 0-.59-.1-.81-.31a1.01 1.01 0 0 1-.35-.77 1 1 0 0 1 .35-.75c.22-.22.5-.32.81-.32.32 0 .6.1.82.32a1 1 0 0 1 .34.75 1 1 0 0 1-.34.77c-.23.2-.5.31-.82.31Zm2.57 7.92V6.05h2.25v3.57h.05c.1-.21.22-.42.4-.62.16-.2.38-.36.65-.49s.59-.2.96-.2a2.62 2.62 0 0 1 2.42 1.59c.27.54.4 1.23.4 2.06 0 .8-.13 1.47-.38 2.02a2.61 2.61 0 0 1-3.38 1.45 2.02 2.02 0 0 1-1.07-1.08h-.07v1.15h-2.23Zm2.2-3.55c0 .39.06.72.16 1s.25.5.45.66c.2.16.43.23.7.23.28 0 .52-.07.71-.23.2-.16.34-.38.44-.66.1-.28.15-.61.15-1 0-.38-.05-.7-.15-.99a1.4 1.4 0 0 0-.44-.65c-.2-.15-.43-.23-.7-.23-.28 0-.52.08-.71.23-.2.15-.35.36-.45.64a3 3 0 0 0-.15 1Zm8.37-5.9v9.45h-2.26V6.05h2.26Zm4.75 9.58a4 4 0 0 1-1.92-.43c-.54-.3-.95-.72-1.24-1.26a4.16 4.16 0 0 1-.43-1.96c0-.73.15-1.37.44-1.92.29-.55.7-.98 1.22-1.28a4.14 4.14 0 0 1 3.25-.23 2.98 2.98 0 0 1 1.8 1.84c.16.45.25.96.25 1.55v.56h-6.17v-1.31h4.07c0-.24-.06-.46-.18-.64a1.16 1.16 0 0 0-.45-.44c-.2-.11-.41-.16-.66-.16a1.35 1.35 0 0 0-1.16.62c-.11.2-.18.41-.18.66v1.33c0 .29.06.54.17.76.11.22.27.38.48.5.21.12.46.18.75.18.2 0 .38-.02.55-.08.16-.05.3-.14.42-.24.11-.11.2-.24.26-.4l2.07.06a2.67 2.67 0 0 1-1.71 2.01 4.4 4.4 0 0 1-1.63.28Z"/></g></g><rect width="77.8" height="19.8" x=".6" y=".6" stroke="url(#e)" stroke-opacity=".88" stroke-width="1.2" rx="4.4"/><defs><clipPath id="a"><rect width="79" height="21" fill="#fff" rx="5"/></clipPath><clipPath id="c"><path fill="#fff" d="M5 5h16v11H5z"/></clipPath><filter id="b" width="27.2" height="27.2" x="-.6" y="-3.1" color-interpolation-filters="sRGB" filterUnits="userSpaceOnUse"><feFlood flood-opacity="0" result="BackgroundImageFix"/><feColorMatrix in="SourceAlpha" result="hardAlpha" values="0 0 0 0 0 0 0 0 0 0 0 0 0 0 0 0 0 0 127 0"/><feOffset/><feGaussianBlur stdDeviation="2.8"/><feComposite in2="hardAlpha" operator="out"/><feColorMatrix values="0 0 0 0 0 0 0 0 0 0 0 0 0 0 0 0 0 0 0.25 0"/><feBlend in2="BackgroundImageFix" result="effect1_dropShadow_2013_84"/><feBlend in="SourceGraphic" in2="effect1_dropShadow_2013_84" result="shape"/></filter><filter id="d" width="62.43" height="27.43" x="17.29" y="-3.21" color-interpolation-filters="sRGB" filterUnits="userSpaceOnUse"><feFlood flood-opacity="0" result="BackgroundImageFix"/><feColorMatrix in="SourceAlpha" result="hardAlpha" values="0 0 0 0 0 0 0 0 0 0 0 0 0 0 0 0 0 0 127 0"/><feOffset/><feGaussianBlur stdDeviation="2.86"/><feComposite in2="hardAlpha" operator="out"/><feColorMatrix values="0 0 0 0 0 0 0 0 0 0 0 0 0 0 0 0 0 0 0.25 0"/><feBlend in2="BackgroundImageFix" result="effect1_dropShadow_2013_84"/><feBlend in="SourceGraphic" in2="effect1_dropShadow_2013_84" result="shape"/></filter><linearGradient id="e" x1="0" x2="79" y1="10.5" y2="10.5" gradientUnits="userSpaceOnUse"><stop stop-color="#6F2C10"/><stop offset="1" stop-color="#925B28"/></linearGradient></defs></svg>
